public/avatar/item1/61.svg

<svg xmlns:xlink="http://www.w3.org/1999/xlink" height="65.4" width="80.15" xmlns="http://www.w3.org/2000/svg"><use height="21.2" transform="translate(13.65 32.05)" width="36.3" xlink:href="#a"/><defs><g id="a"><path d="m7.85 30.55-7.9.4-2.7-.5q2.5-6.9-1-9.4-4.85-3.45-8.25-.6l-.95 1q-1.65 1.75-1.85 2.4-1 2.6 2 3.25 1.95.45 2.4 1.2v.65l-1.8-.2-2.8-.05q-1.8 1.15-1.3 3.9.65 3.25 5.05 4.5 6.7 1.85 12.5 1.85 7.8 0 13.2-2.7 3.6-1.75 3.3-4.65-.25-3.2-2.9-3.45-.8-.1-3.05.95l-3.95 1.45" fill="#ffd138" fill-rule="evenodd" transform="translate(17.95 -18.25)"/><path d="m-1.95 27.95.15.15q1.75-5.2-2-7.5-5.3-3.25-7.25-.8 3.1-.1 5.85 2.5 2.6 2.5 3.25 5.65m7.05 3.3h-.5q-4.85-1.05-7.65-.15v.45q5.85 2.5 13.25-.15 4-1.5 4.75-2.8-1.55-.8-4.9.9-3.7 1.9-4.95 1.75" fill="#fff4d1" fill-rule="evenodd" transform="translate(17.95 -18.25)"/><path d="M-14.3 23.1q-.45.3-.45 1.75.1 1.45 1.95 2.35l1.65.55q1.05.45.5 1.1-.25.3-1.45.8-1.05.45-1.15 1.05-.25 1.5 2.6 3l2.3.5q-1-.25-1.4-1.3-.4-1.1.1-2.1.25-.55 2.2-1 1.8-.4 1.75-1.1-.1-.9-4.1-2.45-2.35-.9-3.55-2.3-.8-.95-.95-.85" fill="#cfa92d" fill-rule="evenodd" transform="translate(17.95 -18.25)"/><path d="M10.95 34.6Q3.6 36.2-1.3 36.1q-7.25-.1-9.1-4.2-.35-.8-.35-2.5-.85-1.4-3.6-.6L-16 29.95l-.3 2.25.4 1.55q1.4 1.85 3.6 2.85 3.65 1.7 9.9 1.9L8.7 38l5.5-1.65q2.75-1.25 2.8-1.5l.85-2.75-.35-.9-.05-.2q-2.6 2.75-6.5 3.6" fill="#cfa92d" fill-rule="evenodd" transform="translate(17.95 -18.25)"/><path d="M-5.25 20.45q-3.65-.9-4.05 2.15-.35 3 2.6 4.15 2.85 1.15 3.65-2.2.8-3.35-2.2-4.1" fill="#8a6b0b" fill-rule="evenodd" transform="translate(17.95 -18.25)"/><path d="M-5.45 21.1q-2.7-.65-3 1.7-.3 2.3 1.9 3.15 2.15.85 2.75-1.75.6-2.55-1.65-3.1" fill="#fff" fill-rule="evenodd" transform="translate(17.95 -18.25)"/><path d="M-5.45 22.55q-1.1-.15-1.4.8-.35.95.8 1.5 1.15.6 1.45-.75.35-1.4-.85-1.55" fill-rule="evenodd" transform="translate(17.95 -18.25)"/><path d="M-6.75 22.5q-.5.25-.05.85.5.55 1 .25.5-.3.05-.85-.4-.5-1-.25" fill="#fff" fill-rule="evenodd" transform="translate(17.95 -18.25)"/><path d="M14.85 28.15q2.65.25 2.9 3.45v.3l.1.2-.1.25-.45 1.5-.3 1-2.4 1.35-.15.05q-5.4 2.7-13.2 2.7-5.4 0-10-1.2l-2.5-.65q-3.45-.95-4.6-3.3l-.05-.05-.05-.15q-.8-1.8-.05-3.55v-.1l.05-.05.95-1.2 1.8-.05 1.55.15 1.25.15v-.65q-.45-.75-2.4-1.2-3-.65-2-3.25.2-.65 1.85-2.4l.95-1 1-.65h-.05q1.95-2.45 7.25.8 3.75 2.3 2 7.5l-.95 2.35 2.7.5 7.9-.4 3.95-1.45q2.25-1.05 3.05-.95Z" fill="none" stroke="#45380f" stroke-linecap="round" stroke-linejoin="round" transform="translate(17.95 -18.25)"/><path d="m-11.5 23.35.15-1.65q.05-1.3-1.2-.6l-1.6 1.75-2.9 1.85q-.5 1.65 2.75 2.4 6.9 1.7 7.3.85.3-.65-.85-1.45-.9-.6-1.55-.75-1.25-.3-1.75-1.25l-.35-1.15" fill="#ff7b00" fill-rule="evenodd" transform="translate(17.95 -18.25)"/><path d="M-12.3 23.45q-2.2 1.05-.95 1.75.8.4.95-.65v-1.1" fill="#854000" fill-rule="evenodd" transform="translate(17.95 -18.25)"/><path d="M9.7 33q.05-.95-2.05-1.2l-2.15-.1 1.55.45q1.5.6 1.45 1.05-.05.75-3.65 1.3l4 1.25q.4.7-1.6 1.35 3-.65 2.85-1.4-.1-.45-1.45-.85l-1.3-.25q2.15.15 2.35-1.6" fill="#9c7600" fill-rule="evenodd" transform="translate(17.95 -18.25)"/><path d="m-6.8 28.25-.45.25-2.5-.05q-7.25-1.2-7.65-2.6-.3-1.1.95-2l1.9-1.05 1.65-1.95" fill="none" stroke="#854000" stroke-linecap="round" stroke-linejoin="round" transform="translate(17.95 -18.25)"/></g></defs></svg>

<?xml version="1.0" encoding="UTF-8" standalone="no"?>
<svg xmlns:xlink="http://www.w3.org/1999/xlink" height="65.4px" width="80.15px" xmlns="http://www.w3.org/2000/svg">
  <g transform="matrix(1.0, 0.0, 0.0, 1.0, 31.6, 13.8)">
    <use height="21.2" transform="matrix(1.0, 0.0, 0.0, 1.0, -17.95, 18.25)" width="36.3" xlink:href="#shape0"/>
  </g>
  <defs>
    <g id="shape0" transform="matrix(1.0, 0.0, 0.0, 1.0, 17.95, -18.25)">
      <path d="M7.85 30.55 L-0.05 30.95 -2.75 30.45 Q-0.25 23.55 -3.75 21.05 -8.6 17.6 -12.0 20.45 L-12.95 21.45 Q-14.6 23.2 -14.8 23.85 -15.8 26.45 -12.8 27.1 -10.85 27.55 -10.4 28.3 L-10.4 28.95 -12.2 28.75 -15.0 28.7 Q-16.8 29.85 -16.3 32.6 -15.65 35.85 -11.25 37.1 -4.55 38.95 1.25 38.95 9.05 38.95 14.45 36.25 18.05 34.5 17.75 31.6 17.5 28.4 14.85 28.15 14.05 28.05 11.8 29.1 L7.85 30.55" fill="#ffd138" fill-rule="evenodd" stroke="none"/>
      <path d="M-1.95 27.95 L-1.8 28.1 Q-0.05 22.9 -3.8 20.6 -9.1 17.35 -11.05 19.8 -7.95 19.7 -5.2 22.3 -2.6 24.8 -1.95 27.95" fill="#fff4d1" fill-rule="evenodd" stroke="none"/>
      <path d="M5.1 31.25 L4.6 31.25 Q-0.25 30.2 -3.05 31.1 L-3.05 31.55 Q2.8 34.05 10.2 31.4 14.2 29.9 14.95 28.6 13.4 27.8 10.05 29.5 6.35 31.4 5.1 31.25" fill="#fff4d1" fill-rule="evenodd" stroke="none"/>
      <path d="M-14.3 23.1 Q-14.75 23.4 -14.75 24.85 -14.65 26.3 -12.8 27.2 L-11.15 27.75 Q-10.1 28.2 -10.65 28.85 -10.9 29.15 -12.1 29.65 -13.15 30.1 -13.25 30.7 -13.5 32.2 -10.65 33.7 L-8.35 34.2 Q-9.35 33.95 -9.75 32.9 -10.15 31.8 -9.65 30.8 -9.4 30.25 -7.45 29.8 -5.65 29.4 -5.7 28.7 -5.8 27.8 -9.8 26.25 -12.15 25.35 -13.35 23.95 -14.15 23.0 -14.3 23.1" fill="#cfa92d" fill-rule="evenodd" stroke="none"/>
      <path d="M10.95 34.6 Q3.6 36.2 -1.3 36.1 -8.55 36.0 -10.4 31.9 -10.75 31.1 -10.75 29.4 -11.6 28.0 -14.35 28.8 L-16.0 29.95 -16.3 32.2 -15.9 33.75 Q-14.5 35.6 -12.3 36.6 -8.65 38.3 -2.4 38.5 L8.7 38.0 14.2 36.35 Q16.95 35.1 17.0 34.85 L17.85 32.1 17.5 31.2 17.45 31.0 Q14.85 33.75 10.95 34.6" fill="#cfa92d" fill-rule="evenodd" stroke="none"/>
      <path d="M-5.25 20.45 Q-8.9 19.55 -9.3 22.6 -9.65 25.6 -6.7 26.75 -3.85 27.9 -3.05 24.55 -2.25 21.2 -5.25 20.45" fill="#8a6b0b" fill-rule="evenodd" stroke="none"/>
      <path d="M-5.45 21.1 Q-8.15 20.45 -8.45 22.8 -8.75 25.1 -6.55 25.95 -4.4 26.8 -3.8 24.2 -3.2 21.65 -5.45 21.1" fill="#ffffff" fill-rule="evenodd" stroke="none"/>
      <path d="M-5.45 22.55 Q-6.55 22.4 -6.85 23.35 -7.2 24.3 -6.05 24.85 -4.9 25.45 -4.6 24.1 -4.25 22.7 -5.45 22.55" fill="#000000" fill-rule="evenodd" stroke="none"/>
      <path d="M-6.75 22.5 Q-7.25 22.75 -6.8 23.35 -6.3 23.9 -5.8 23.6 -5.3 23.3 -5.75 22.75 -6.15 22.25 -6.75 22.5" fill="#ffffff" fill-rule="evenodd" stroke="none"/>
      <path d="M14.85 28.15 Q17.5 28.4 17.75 31.6 L17.75 31.9 17.85 32.1 17.75 32.35 17.3 33.85 17.0 34.85 14.6 36.2 14.45 36.25 Q9.05 38.95 1.25 38.95 -4.15 38.95 -8.75 37.75 L-11.25 37.1 Q-14.7 36.15 -15.85 33.8 L-15.9 33.75 -15.95 33.6 Q-16.75 31.8 -16.0 30.05 L-16.0 29.95 -15.95 29.9 -15.0 28.7 -13.2 28.65 -11.65 28.8 -10.4 28.95 -10.4 28.3 Q-10.85 27.55 -12.8 27.1 -15.8 26.45 -14.8 23.85 -14.6 23.2 -12.95 21.45 L-12.0 20.45 -11.0 19.8 -11.05 19.8 Q-9.1 17.35 -3.8 20.6 -0.05 22.9 -1.8 28.1 L-2.75 30.45 -0.05 30.95 7.85 30.55 11.8 29.1 Q14.05 28.05 14.85 28.15 Z" fill="none" stroke="#45380f" stroke-linecap="round" stroke-linejoin="round" stroke-width="1.0"/>
      <path d="M-11.5 23.35 L-11.35 21.7 Q-11.3 20.4 -12.55 21.1 L-14.15 22.85 -17.05 24.7 Q-17.55 26.35 -14.3 27.1 -7.4 28.8 -7.0 27.95 -6.7 27.3 -7.85 26.5 -8.75 25.9 -9.4 25.75 -10.65 25.45 -11.15 24.5 L-11.5 23.35" fill="#ff7b00" fill-rule="evenodd" stroke="none"/>
      <path d="M-12.3 23.45 Q-14.5 24.5 -13.25 25.2 -12.45 25.6 -12.3 24.55 L-12.3 23.45" fill="#854000" fill-rule="evenodd" stroke="none"/>
      <path d="M9.7 33.0 Q9.75 32.05 7.65 31.8 L5.5 31.7 7.05 32.15 Q8.55 32.75 8.5 33.2 8.45 33.95 4.85 34.5 L8.85 35.75 Q9.25 36.45 7.25 37.1 10.25 36.45 10.1 35.7 10.0 35.25 8.65 34.85 L7.35 34.6 Q9.5 34.75 9.7 33.0" fill="#9c7600" fill-rule="evenodd" stroke="none"/>
      <path d="M-6.8 28.25 L-7.25 28.5 -9.75 28.45 Q-17.0 27.25 -17.4 25.85 -17.7 24.75 -16.45 23.85 L-14.55 22.8 -12.9 20.85" fill="none" stroke="#854000" stroke-linecap="round" stroke-linejoin="round" stroke-width="1.0"/>
    </g>
  </defs>
</svg>
